X:929
T:Bröllopsmarsch efter Ankarloo
T:(SvL Skåne nr. 112)
R:Marsch
Z:Patrik Månsson, 2009-01-03
S:efter Johan Ankarloo
O:Näsum, Skåne
B:Svenska Låtar Skåne nr 112
M:4/4
L:1/8
K:G
N: Denna marsch samt följande brudpolska (SvL Sk nr. 113) vore stående musik vid alla bondbröllop i orten. (SvL)
|: d2 | g2 d2 B2 d2 | gfga b2 ga | b3 g (ba) (af) | g4 z2 :|
|: ga | b2 b2 c'bag | a^gab a2 df |
a2 a2 (ba) (gf) | g2 d2 B2 dg | b3 g ba af | g4 z2 :|
(:musicend:)

(:music:)
